src/images/admin/admin_deco.svg

<svg height="387" viewBox="0 0 720 387" width="720" xmlns="http://www.w3.org/2000/svg" xmlns:xlink="http://www.w3.org/1999/xlink"><linearGradient id="a" x1="100%" x2="0%" y1="50%" y2="50%"><stop offset="0" stop-color="#4fc4f9" stop-opacity="0"/><stop offset="1" stop-color="#4fc4f9"/></linearGradient><path d="m1.02418208 0v387h-1.02418208v-387zm9.21763872 0v387h-1.02418211v-387zm9.2176387 0v387h-1.0241821v-387zm9.2176387 0v387h-1.0241821v-387zm9.2176386 0v387h-1.024182v-387zm9.2176387 0v387h-1.024182v-387zm9.2176387 0v387h-1.0241821v-387zm9.2176387 0v387h-1.0241821v-387zm9.2176387 0v387h-1.0241821v-387zm9.2176387 0v387h-1.0241821v-387zm9.2176387 0v387h-1.0241821v-387zm9.217639 0v387h-1.024182v-387zm9.217638 0v387h-1.024182v-387zm9.217639 0v387h-1.024182v-387zm9.217639 0v387h-1.024182v-387zm9.217638 0v387h-1.024182v-387zm9.217639 0v387h-1.024182v-387zm9.217639 0v387h-1.024182v-387zm9.217639 0v387h-1.024183v-387zm9.217638 0v387h-1.024182v-387zm9.217639 0v387h-1.024182v-387zm9.217639 0v387h-1.024182v-387zm9.217638 0v387h-1.024182v-387zm9.217639 0v387h-1.024182v-387zm9.217639 0v387h-1.024182v-387zm9.217638 0v387h-1.024182v-387zm9.217639 0v387h-1.024182v-387zm9.217639 0v387h-1.024182v-387zm9.217638 0v387h-1.024182v-387zm9.217639 0v387h-1.024182v-387zm9.217639 0v387h-1.024182v-387zm9.217639 0v387h-1.024183v-387zm9.217638 0v387h-1.024182v-387zm9.217639 0v387h-1.024182v-387zm9.217639 0v387h-1.024182v-387zm9.217638 0v387h-1.024182v-387zm9.217639 0v387h-1.024182v-387zm9.217639 0v387h-1.024182v-387zm9.217638 0v387h-1.024182v-387zm9.217639 0v387h-1.024182v-387zm9.217639 0v387h-1.024182v-387zm9.217638 0v387h-1.024182v-387zm9.217639 0v387h-1.024182v-387zm9.217639 0v387h-1.024182v-387zm9.217638 0v387h-1.024182v-387zm9.217639 0v387h-1.024182v-387zm9.217639 0v387h-1.024182v-387zm9.217639 0v387h-1.024183v-387zm9.217638 0v387h-1.024182v-387zm9.217639 0v387h-1.024182v-387zm9.217639 0v387h-1.024182v-387zm9.217638 0v387h-1.024182v-387zm9.217639 0v387h-1.024182v-387zm9.217639 0v387h-1.024182v-387zm9.217638 0v387h-1.024182v-387zm9.217639 0v387h-1.024182v-387zm9.217639 0v387h-1.024182v-387zm9.217638 0v387h-1.024182v-387zm9.217639 0v387h-1.024182v-387zm9.217639 0v387h-1.024182v-387zm9.217639 0v387h-1.024183v-387zm9.217638 0v387h-1.024182v-387zm9.217639 0v387h-1.024182v-387zm9.217639 0v387h-1.024182v-387zm9.217638 0v387h-1.024182v-387zm9.217639 0v387h-1.024182v-387zm9.217639 0v387h-1.024182v-387zm9.217638 0v387h-1.024182v-387zm9.217639 0v387h-1.024182v-387zm9.217639 0v387h-1.024182v-387zm9.217638 0v387h-1.024182v-387zm9.217639 0v387h-1.024182v-387zm9.217639 0v387h-1.024182v-387zm9.217639 0v387h-1.024183v-387zm9.217638 0v387h-1.024182v-387zm9.217639 0v387h-1.024182v-387zm9.217639 0v387h-1.024182v-387zm9.217638 0v387h-1.024182v-387zm9.217639 0v387h-1.024182v-387z" fill="url(#a)" fill-rule="evenodd" opacity=".2"/></svg>

<?xml version="1.0" encoding="UTF-8"?>
<svg width="720px" height="387px" viewBox="0 0 720 387" version="1.1" xmlns="http://www.w3.org/2000/svg" xmlns:xlink="http://www.w3.org/1999/xlink">
    <!-- Generator: Sketch 62 (91390) - https://sketch.com -->
    <title>deco</title>
    <desc>Created with Sketch.</desc>
    <defs>
        <linearGradient x1="100%" y1="50%" x2="0%" y2="50%" id="linearGradient-1">
            <stop stop-color="#4FC4F9" stop-opacity="0" offset="0%"></stop>
            <stop stop-color="#4FC4F9" offset="100%"></stop>
        </linearGradient>
    </defs>
    <g id="light" stroke="none" stroke-width="1" fill="none" fill-rule="evenodd" opacity="0.2">
        <g id="Admin" transform="translate(0.000000, -1792.000000)" fill="url(#linearGradient-1)">
            <g id="deco" transform="translate(0.000000, 1792.000000)">
                <path d="M1.02418208,1.13686838e-13 L1.02418208,387 L-7.0399242e-13,387 L-7.0399242e-13,1.13686838e-13 L1.02418208,1.13686838e-13 Z M10.2418208,1.13686838e-13 L10.2418208,387 L9.21763869,387 L9.21763869,1.13686838e-13 L10.2418208,1.13686838e-13 Z M19.4594595,1.13686838e-13 L19.4594595,387 L18.4352774,387 L18.4352774,1.13686838e-13 L19.4594595,1.13686838e-13 Z M28.6770982,1.13686838e-13 L28.6770982,387 L27.6529161,387 L27.6529161,1.13686838e-13 L28.6770982,1.13686838e-13 Z M37.8947368,1.13686838e-13 L37.8947368,387 L36.8705548,387 L36.8705548,1.13686838e-13 L37.8947368,1.13686838e-13 Z M47.1123755,1.13686838e-13 L47.1123755,387 L46.0881935,387 L46.0881935,1.13686838e-13 L47.1123755,1.13686838e-13 Z M56.3300142,1.13686838e-13 L56.3300142,387 L55.3058321,387 L55.3058321,1.13686838e-13 L56.3300142,1.13686838e-13 Z M65.5476529,1.13686838e-13 L65.5476529,387 L64.5234708,387 L64.5234708,1.13686838e-13 L65.5476529,1.13686838e-13 Z M74.7652916,1.13686838e-13 L74.7652916,387 L73.7411095,387 L73.7411095,1.13686838e-13 L74.7652916,1.13686838e-13 Z M83.9829303,1.13686838e-13 L83.9829303,387 L82.9587482,387 L82.9587482,1.13686838e-13 L83.9829303,1.13686838e-13 Z M93.200569,1.13686838e-13 L93.200569,387 L92.1763869,387 L92.1763869,1.13686838e-13 L93.200569,1.13686838e-13 Z M102.418208,1.13686838e-13 L102.418208,387 L101.394026,387 L101.394026,1.13686838e-13 L102.418208,1.13686838e-13 Z M111.635846,1.13686838e-13 L111.635846,387 L110.611664,387 L110.611664,1.13686838e-13 L111.635846,1.13686838e-13 Z M120.853485,1.13686838e-13 L120.853485,387 L119.829303,387 L119.829303,1.13686838e-13 L120.853485,1.13686838e-13 Z M130.071124,1.13686838e-13 L130.071124,387 L129.046942,387 L129.046942,1.13686838e-13 L130.071124,1.13686838e-13 Z M139.288762,1.13686838e-13 L139.288762,387 L138.26458,387 L138.26458,1.13686838e-13 L139.288762,1.13686838e-13 Z M148.506401,1.13686838e-13 L148.506401,387 L147.482219,387 L147.482219,1.13686838e-13 L148.506401,1.13686838e-13 Z M157.72404,1.13686838e-13 L157.72404,387 L156.699858,387 L156.699858,1.13686838e-13 L157.72404,1.13686838e-13 Z M166.941679,1.13686838e-13 L166.941679,387 L165.917496,387 L165.917496,1.13686838e-13 L166.941679,1.13686838e-13 Z M176.159317,1.13686838e-13 L176.159317,387 L175.135135,387 L175.135135,1.13686838e-13 L176.159317,1.13686838e-13 Z M185.376956,1.13686838e-13 L185.376956,387 L184.352774,387 L184.352774,1.13686838e-13 L185.376956,1.13686838e-13 Z M194.594595,1.13686838e-13 L194.594595,387 L193.570413,387 L193.570413,1.13686838e-13 L194.594595,1.13686838e-13 Z M203.812233,1.13686838e-13 L203.812233,387 L202.788051,387 L202.788051,1.13686838e-13 L203.812233,1.13686838e-13 Z M213.029872,1.13686838e-13 L213.029872,387 L212.00569,387 L212.00569,1.13686838e-13 L213.029872,1.13686838e-13 Z M222.247511,1.13686838e-13 L222.247511,387 L221.223329,387 L221.223329,1.13686838e-13 L222.247511,1.13686838e-13 Z M231.465149,1.13686838e-13 L231.465149,387 L230.440967,387 L230.440967,1.13686838e-13 L231.465149,1.13686838e-13 Z M240.682788,1.13686838e-13 L240.682788,387 L239.658606,387 L239.658606,1.13686838e-13 L240.682788,1.13686838e-13 Z M249.900427,1.13686838e-13 L249.900427,387 L248.876245,387 L248.876245,1.13686838e-13 L249.900427,1.13686838e-13 Z M259.118065,1.13686838e-13 L259.118065,387 L258.093883,387 L258.093883,1.13686838e-13 L259.118065,1.13686838e-13 Z M268.335704,1.13686838e-13 L268.335704,387 L267.311522,387 L267.311522,1.13686838e-13 L268.335704,1.13686838e-13 Z M277.553343,1.13686838e-13 L277.553343,387 L276.529161,387 L276.529161,1.13686838e-13 L277.553343,1.13686838e-13 Z M286.770982,1.13686838e-13 L286.770982,387 L285.746799,387 L285.746799,1.13686838e-13 L286.770982,1.13686838e-13 Z M295.98862,1.13686838e-13 L295.98862,387 L294.964438,387 L294.964438,1.13686838e-13 L295.98862,1.13686838e-13 Z M305.206259,1.13686838e-13 L305.206259,387 L304.182077,387 L304.182077,1.13686838e-13 L305.206259,1.13686838e-13 Z M314.423898,1.13686838e-13 L314.423898,387 L313.399716,387 L313.399716,1.13686838e-13 L314.423898,1.13686838e-13 Z M323.641536,1.13686838e-13 L323.641536,387 L322.617354,387 L322.617354,1.13686838e-13 L323.641536,1.13686838e-13 Z M332.859175,1.13686838e-13 L332.859175,387 L331.834993,387 L331.834993,1.13686838e-13 L332.859175,1.13686838e-13 Z M342.076814,1.13686838e-13 L342.076814,387 L341.052632,387 L341.052632,1.13686838e-13 L342.076814,1.13686838e-13 Z M351.294452,1.13686838e-13 L351.294452,387 L350.27027,387 L350.27027,1.13686838e-13 L351.294452,1.13686838e-13 Z M360.512091,1.13686838e-13 L360.512091,387 L359.487909,387 L359.487909,1.13686838e-13 L360.512091,1.13686838e-13 Z M369.72973,1.13686838e-13 L369.72973,387 L368.705548,387 L368.705548,1.13686838e-13 L369.72973,1.13686838e-13 Z M378.947368,1.13686838e-13 L378.947368,387 L377.923186,387 L377.923186,1.13686838e-13 L378.947368,1.13686838e-13 Z M388.165007,1.13686838e-13 L388.165007,387 L387.140825,387 L387.140825,1.13686838e-13 L388.165007,1.13686838e-13 Z M397.382646,1.13686838e-13 L397.382646,387 L396.358464,387 L396.358464,1.13686838e-13 L397.382646,1.13686838e-13 Z M406.600284,1.13686838e-13 L406.600284,387 L405.576102,387 L405.576102,1.13686838e-13 L406.600284,1.13686838e-13 Z M415.817923,1.13686838e-13 L415.817923,387 L414.793741,387 L414.793741,1.13686838e-13 L415.817923,1.13686838e-13 Z M425.035562,1.13686838e-13 L425.035562,387 L424.01138,387 L424.01138,1.13686838e-13 L425.035562,1.13686838e-13 Z M434.253201,1.13686838e-13 L434.253201,387 L433.229018,387 L433.229018,1.13686838e-13 L434.253201,1.13686838e-13 Z M443.470839,1.13686838e-13 L443.470839,387 L442.446657,387 L442.446657,1.13686838e-13 L443.470839,1.13686838e-13 Z M452.688478,1.13686838e-13 L452.688478,387 L451.664296,387 L451.664296,1.13686838e-13 L452.688478,1.13686838e-13 Z M461.906117,1.13686838e-13 L461.906117,387 L460.881935,387 L460.881935,1.13686838e-13 L461.906117,1.13686838e-13 Z M471.123755,1.13686838e-13 L471.123755,387 L470.099573,387 L470.099573,1.13686838e-13 L471.123755,1.13686838e-13 Z M480.341394,1.13686838e-13 L480.341394,387 L479.317212,387 L479.317212,1.13686838e-13 L480.341394,1.13686838e-13 Z M489.559033,1.13686838e-13 L489.559033,387 L488.534851,387 L488.534851,1.13686838e-13 L489.559033,1.13686838e-13 Z M498.776671,1.13686838e-13 L498.776671,387 L497.752489,387 L497.752489,1.13686838e-13 L498.776671,1.13686838e-13 Z M507.99431,1.13686838e-13 L507.99431,387 L506.970128,387 L506.970128,1.13686838e-13 L507.99431,1.13686838e-13 Z M517.211949,1.13686838e-13 L517.211949,387 L516.187767,387 L516.187767,1.13686838e-13 L517.211949,1.13686838e-13 Z M526.429587,1.13686838e-13 L526.429587,387 L525.405405,387 L525.405405,1.13686838e-13 L526.429587,1.13686838e-13 Z M535.647226,1.13686838e-13 L535.647226,387 L534.623044,387 L534.623044,1.13686838e-13 L535.647226,1.13686838e-13 Z M544.864865,1.13686838e-13 L544.864865,387 L543.840683,387 L543.840683,1.13686838e-13 L544.864865,1.13686838e-13 Z M554.082504,1.13686838e-13 L554.082504,387 L553.058321,387 L553.058321,1.13686838e-13 L554.082504,1.13686838e-13 Z M563.300142,1.13686838e-13 L563.300142,387 L562.27596,387 L562.27596,1.13686838e-13 L563.300142,1.13686838e-13 Z M572.517781,1.13686838e-13 L572.517781,387 L571.493599,387 L571.493599,1.13686838e-13 L572.517781,1.13686838e-13 Z M581.73542,1.13686838e-13 L581.73542,387 L580.711238,387 L580.711238,1.13686838e-13 L581.73542,1.13686838e-13 Z M590.953058,1.13686838e-13 L590.953058,387 L589.928876,387 L589.928876,1.13686838e-13 L590.953058,1.13686838e-13 Z M600.170697,1.13686838e-13 L600.170697,387 L599.146515,387 L599.146515,1.13686838e-13 L600.170697,1.13686838e-13 Z M609.388336,1.13686838e-13 L609.388336,387 L608.364154,387 L608.364154,1.13686838e-13 L609.388336,1.13686838e-13 Z M618.605974,1.13686838e-13 L618.605974,387 L617.581792,387 L617.581792,1.13686838e-13 L618.605974,1.13686838e-13 Z M627.823613,1.13686838e-13 L627.823613,387 L626.799431,387 L626.799431,1.13686838e-13 L627.823613,1.13686838e-13 Z M637.041252,1.13686838e-13 L637.041252,387 L636.01707,387 L636.01707,1.13686838e-13 L637.041252,1.13686838e-13 Z M646.25889,1.13686838e-13 L646.25889,387 L645.234708,387 L645.234708,1.13686838e-13 L646.25889,1.13686838e-13 Z M655.476529,1.13686838e-13 L655.476529,387 L654.452347,387 L654.452347,1.13686838e-13 L655.476529,1.13686838e-13 Z M664.694168,1.13686838e-13 L664.694168,387 L663.669986,387 L663.669986,1.13686838e-13 L664.694168,1.13686838e-13 Z M673.911807,1.13686838e-13 L673.911807,387 L672.887624,387 L672.887624,1.13686838e-13 L673.911807,1.13686838e-13 Z M683.129445,1.13686838e-13 L683.129445,387 L682.105263,387 L682.105263,1.13686838e-13 L683.129445,1.13686838e-13 Z M692.347084,1.13686838e-13 L692.347084,387 L691.322902,387 L691.322902,1.13686838e-13 L692.347084,1.13686838e-13 Z M701.564723,1.13686838e-13 L701.564723,387 L700.540541,387 L700.540541,1.13686838e-13 L701.564723,1.13686838e-13 Z M710.782361,1.13686838e-13 L710.782361,387 L709.758179,387 L709.758179,1.13686838e-13 L710.782361,1.13686838e-13 Z M720,1.13686838e-13 L720,387 L718.975818,387 L718.975818,1.13686838e-13 L720,1.13686838e-13 Z" id="Combined-Shape"></path>
            </g>
        </g>
    </g>
</svg>
